X:10
T: Ritter und Magd
N: Q0055I
O: Osteuropa, Ungarn, Nemetker Komitat Tolnau
N: Dritte Zeile = Refrain auf sinnfreie Silben.
R: Ballade, Betrug, Schwangerschaft, Tod, Selbstmord, Herr und Magd
M: 2/2
L: 1/8
K: G
G2 | B2G2G2B2 | A2AGF2
E2 | G2E2G2E2 | D2G2D2
DD | E2CCC2EE | D2DCB,2
D2 | G2G2B2G2 | A4G2

@@@ Tune index: 886
